svg/blobs-icons/no-decorations/water-sprayer.svg

<svg xmlns="http://www.w3.org/2000/svg" xmlns:xlink="http://www.w3.org/1999/xlink" preserveAspectRatio="xMidYMid" width="114" height="217" viewBox="0 0 114 217"><defs><style>.cls-3{fill:#fbb713}.cls-4{fill:#142a3b}.cls-5{fill:#2476ff}.cls-9{fill:#fff}.cls-10{fill:#ff3a2f}.cls-11{fill:#010101;opacity:.35}</style></defs><g id="group-6svg"><path d="M73.081 78.547s0 21.262.0 21.262C73.081 103.038 74.323 106.142 76.55 108.481l15.924 16.72C94.7 127.54 95.942 130.645 95.942 133.874v70.415C95.942 211.234 90.313 216.864 83.369 216.864H17.07c-6.944.0-12.574-5.63-12.574-12.575V78.547c0-6.944 5.63-12.574 12.574-12.574H60.507c6.945.0 12.574 5.63 12.574 12.574z" id="path-1" class="cls-3" fill-rule="evenodd"/><path d="M112.148 21.418s-12.879.0-12.879.0c-.552000000000007.0-1-.448-1-1V9.557C98.269 9.006 98.717 8.558 99.269 8.558h12.879C112.701 8.558 113.148 9.006 113.148 9.557V20.418c0 .552-.447000000000003 1-1 1z" id="path-2" class="cls-4" fill-rule="evenodd"/><path d="M95.942 146.848S87.85 137.719 87.85 137.719C84.548 133.995 78.677 134.179 75.616 138.103L74.54 139.482C71.526 143.346 65.77 143.595 62.433 140.007l-3.559-3.828C55.958 133.042 51.082 132.775 47.841 135.574L40.651 141.784C37.387 144.603 32.472 144.31 29.566 141.124l-3.867-4.239C22.582 133.468 17.22 133.417 14.039 136.775L4.496 146.848s0 12.208.0 12.208.0 45.233.0 45.233C4.496 211.234 10.126 216.864 17.07 216.864H83.369c6.944.0 12.573-5.63 12.573-12.575V146.848z" id="path-3" class="cls-5" fill-rule="evenodd"/><path d="M26.164 90.357s-16.289.0-16.289.0C8.876 90.357 8.068 89.547 8.068 88.549 8.068 87.551 8.876 86.741 9.875 86.741H26.164C27.162 86.741 27.971 87.551 27.971 88.549 27.971 89.547 27.162 90.357 26.164 90.357z" id="path-4" class="cls-4" fill-rule="evenodd"/><path d="M26.164 104.502s-16.289.0-16.289.0C8.876 104.502 8.068 103.693 8.068 102.695 8.068 101.698 8.876 100.888 9.875 100.888H26.164C27.162 100.888 27.971 101.698 27.971 102.695 27.971 103.693 27.162 104.502 26.164 104.502z" id="path-5" class="cls-4" fill-rule="evenodd"/><path d="M26.164 118.648s-16.289.0-16.289.0C8.876 118.648 8.068 117.84 8.068 116.841 8.068 115.843 8.876 115.034 9.875 115.034H26.164C27.162 115.034 27.971 115.843 27.971 116.841 27.971 117.84 27.162 118.648 26.164 118.648z" id="path-6" class="cls-4" fill-rule="evenodd"/><path d="M73.122 199.629c-1.997.0-3.615-1.62-3.615-3.61599999999999V125.425c0-1.996 1.618-3.615 3.615-3.615 1.995.0 3.614 1.619 3.614 3.615v70.588C76.736 198.009 75.117 199.629 73.122 199.629z" id="path-7" class="cls-9" fill-rule="evenodd"/><path d="M88.36 28.041s0 14.575.0 14.575 12.253 16.882 12.253 16.882C101.007 60.041 101.219 60.695 101.219 61.367V65.858C101.219 68.894 97.372 70.206 95.517 67.802L79.233 46.692C78.48 45.716 78.073 44.52 78.073 43.287V28.041s10.287.0 10.287.0z" id="path-8" class="cls-10" fill-rule="evenodd"/><path d="M78.073 40.257s10.287.0 10.287.0.0-8.551.0-8.551-10.287.0-10.287.0.0 8.551.0 8.551z" id="path-9" class="cls-11" fill-rule="evenodd"/><path d="M2.321 20.256S24.681 1.502 24.681 1.502C25.85.521 27.327-.015 28.853-.015H96.299C99.884-.015 102.792 2.891 102.792 6.477V25.213c0 3.586-2.908 6.493-6.493 6.493H76.992C75.387 31.706 73.841 32.299 72.648 33.372L59.503 45.203C58.135 46.434 57.354 48.188 57.354 50.029V51.79c0 3.587-2.907 6.493-6.493 6.493H28.125c-3.586.0-6.493-2.906-6.493-6.493.0-3.178-2.3-5.889-5.436-6.406L5.78 43.667C2.713 43.162.434 40.553.346 37.445L.004 25.415c-.057-1.983.796-3.884 2.317-5.159z" id="path-10" class="cls-10" fill-rule="evenodd"/><path d="M57.354 51.79s0-1.452.0-1.452-35.982.0-35.982.0C21.483 50.816 21.633 51.282 21.633 51.79c0 3.586 2.906 6.492 6.492 6.492H50.862c3.585.0 6.492-2.906 6.492-6.492z" id="path-11" class="cls-11" fill-rule="evenodd"/><path d="M53.077 54.363s-29.72.0-29.72.0c-4.103.0-7.43 5.197-7.43 11.61h44.58c0-6.413-3.326-11.61-7.43-11.61z" id="path-12" class="cls-4" fill-rule="evenodd"/></g></svg>

<svg xmlns="http://www.w3.org/2000/svg" xmlns:xlink="http://www.w3.org/1999/xlink" preserveAspectRatio="xMidYMid" width="114" height="217" viewBox="0 0 114 217">
  <defs>
    <style>

      .cls-3 {
        fill: #fbb713;
      }

      .cls-4 {
        fill: #142a3b;
      }

      .cls-5 {
        fill: #2476ff;
      }

      .cls-9 {
        fill: #ffffff;
      }

      .cls-10 {
        fill: #ff3a2f;
      }

      .cls-11 {
        fill: #010101;
        opacity: 0.35;
      }
    </style>
  </defs>
  <g id="group-6svg">
    <path d="M73.081,78.547 C73.081,78.547 73.081,99.809 73.081,99.809 C73.081,103.038 74.323,106.142 76.550,108.481 C76.550,108.481 92.474,125.201 92.474,125.201 C94.700,127.540 95.942,130.645 95.942,133.874 C95.942,133.874 95.942,204.289 95.942,204.289 C95.942,211.234 90.313,216.864 83.369,216.864 C83.369,216.864 17.070,216.864 17.070,216.864 C10.126,216.864 4.496,211.234 4.496,204.289 C4.496,204.289 4.496,78.547 4.496,78.547 C4.496,71.603 10.126,65.973 17.070,65.973 C17.070,65.973 60.507,65.973 60.507,65.973 C67.452,65.973 73.081,71.603 73.081,78.547 Z" id="path-1" class="cls-3" fill-rule="evenodd"/>
    <path d="M112.148,21.418 C112.148,21.418 99.269,21.418 99.269,21.418 C98.717,21.418 98.269,20.970 98.269,20.418 C98.269,20.418 98.269,9.557 98.269,9.557 C98.269,9.006 98.717,8.558 99.269,8.558 C99.269,8.558 112.148,8.558 112.148,8.558 C112.701,8.558 113.148,9.006 113.148,9.557 C113.148,9.557 113.148,20.418 113.148,20.418 C113.148,20.970 112.701,21.418 112.148,21.418 Z" id="path-2" class="cls-4" fill-rule="evenodd"/>
    <path d="M95.942,146.848 C95.942,146.848 87.850,137.719 87.850,137.719 C84.548,133.995 78.677,134.179 75.616,138.103 C75.616,138.103 74.540,139.482 74.540,139.482 C71.526,143.346 65.770,143.595 62.433,140.007 C62.433,140.007 58.874,136.179 58.874,136.179 C55.958,133.042 51.082,132.775 47.841,135.574 C47.841,135.574 40.651,141.784 40.651,141.784 C37.387,144.603 32.472,144.310 29.566,141.124 C29.566,141.124 25.699,136.885 25.699,136.885 C22.582,133.468 17.220,133.417 14.039,136.775 C14.039,136.775 4.496,146.848 4.496,146.848 C4.496,146.848 4.496,159.056 4.496,159.056 C4.496,159.056 4.496,204.289 4.496,204.289 C4.496,211.234 10.126,216.864 17.070,216.864 C17.070,216.864 83.369,216.864 83.369,216.864 C90.313,216.864 95.942,211.234 95.942,204.289 C95.942,204.289 95.942,146.848 95.942,146.848 Z" id="path-3" class="cls-5" fill-rule="evenodd"/>
    <path d="M26.164,90.357 C26.164,90.357 9.875,90.357 9.875,90.357 C8.876,90.357 8.068,89.547 8.068,88.549 C8.068,87.551 8.876,86.741 9.875,86.741 C9.875,86.741 26.164,86.741 26.164,86.741 C27.162,86.741 27.971,87.551 27.971,88.549 C27.971,89.547 27.162,90.357 26.164,90.357 Z" id="path-4" class="cls-4" fill-rule="evenodd"/>
    <path d="M26.164,104.502 C26.164,104.502 9.875,104.502 9.875,104.502 C8.876,104.502 8.068,103.693 8.068,102.695 C8.068,101.698 8.876,100.888 9.875,100.888 C9.875,100.888 26.164,100.888 26.164,100.888 C27.162,100.888 27.971,101.698 27.971,102.695 C27.971,103.693 27.162,104.502 26.164,104.502 Z" id="path-5" class="cls-4" fill-rule="evenodd"/>
    <path d="M26.164,118.648 C26.164,118.648 9.875,118.648 9.875,118.648 C8.876,118.648 8.068,117.840 8.068,116.841 C8.068,115.843 8.876,115.034 9.875,115.034 C9.875,115.034 26.164,115.034 26.164,115.034 C27.162,115.034 27.971,115.843 27.971,116.841 C27.971,117.840 27.162,118.648 26.164,118.648 Z" id="path-6" class="cls-4" fill-rule="evenodd"/>
    <path d="M73.122,199.629 C71.125,199.629 69.507,198.009 69.507,196.013 C69.507,196.013 69.507,125.425 69.507,125.425 C69.507,123.429 71.125,121.810 73.122,121.810 C75.117,121.810 76.736,123.429 76.736,125.425 C76.736,125.425 76.736,196.013 76.736,196.013 C76.736,198.009 75.117,199.629 73.122,199.629 Z" id="path-7" class="cls-9" fill-rule="evenodd"/>
    <path d="M88.360,28.041 C88.360,28.041 88.360,42.616 88.360,42.616 C88.360,42.616 100.613,59.498 100.613,59.498 C101.007,60.041 101.219,60.695 101.219,61.367 C101.219,61.367 101.219,65.858 101.219,65.858 C101.219,68.894 97.372,70.206 95.517,67.802 C95.517,67.802 79.233,46.692 79.233,46.692 C78.480,45.716 78.073,44.520 78.073,43.287 C78.073,43.287 78.073,28.041 78.073,28.041 C78.073,28.041 88.360,28.041 88.360,28.041 Z" id="path-8" class="cls-10" fill-rule="evenodd"/>
    <path d="M78.073,40.257 C78.073,40.257 88.360,40.257 88.360,40.257 C88.360,40.257 88.360,31.706 88.360,31.706 C88.360,31.706 78.073,31.706 78.073,31.706 C78.073,31.706 78.073,40.257 78.073,40.257 Z" id="path-9" class="cls-11" fill-rule="evenodd"/>
    <path d="M2.321,20.256 C2.321,20.256 24.681,1.502 24.681,1.502 C25.850,0.521 27.327,-0.015 28.853,-0.015 C28.853,-0.015 96.299,-0.015 96.299,-0.015 C99.884,-0.015 102.792,2.891 102.792,6.477 C102.792,6.477 102.792,25.213 102.792,25.213 C102.792,28.799 99.884,31.706 96.299,31.706 C96.299,31.706 76.992,31.706 76.992,31.706 C75.387,31.706 73.841,32.299 72.648,33.372 C72.648,33.372 59.503,45.203 59.503,45.203 C58.135,46.434 57.354,48.188 57.354,50.029 C57.354,50.029 57.354,51.790 57.354,51.790 C57.354,55.377 54.447,58.283 50.861,58.283 C50.861,58.283 28.125,58.283 28.125,58.283 C24.539,58.283 21.632,55.377 21.632,51.790 C21.632,51.790 21.632,51.790 21.632,51.790 C21.632,48.612 19.332,45.901 16.196,45.384 C16.196,45.384 5.780,43.667 5.780,43.667 C2.713,43.162 0.434,40.553 0.346,37.445 C0.346,37.445 0.004,25.415 0.004,25.415 C-0.053,23.432 0.800,21.531 2.321,20.256 Z" id="path-10" class="cls-10" fill-rule="evenodd"/>
    <path d="M57.354,51.790 C57.354,51.790 57.354,50.338 57.354,50.338 C57.354,50.338 21.372,50.338 21.372,50.338 C21.483,50.816 21.633,51.282 21.633,51.790 C21.633,55.376 24.539,58.282 28.125,58.282 C28.125,58.282 50.862,58.282 50.862,58.282 C54.447,58.282 57.354,55.376 57.354,51.790 Z" id="path-11" class="cls-11" fill-rule="evenodd"/>
    <path d="M53.077,54.363 C53.077,54.363 23.357,54.363 23.357,54.363 C19.254,54.363 15.927,59.560 15.927,65.973 C15.927,65.973 60.507,65.973 60.507,65.973 C60.507,59.560 57.181,54.363 53.077,54.363 Z" id="path-12" class="cls-4" fill-rule="evenodd"/>
  </g>
</svg>
